X:19
T:Raft Race
C:Hamish Napier
S:Bene and Cormac: Velocity
M:3/2
L:1/8
K:D
ffed deBA ABd2 | a3b ffec cdBA |
GGde efed ABdA | GGde efed efga |
ffed deBA ABd2 | a3b ffec cdBA |
GGde efed ABdA | efed ABde cdef ||
gaa/a/a d2aa faad | eaa/a/a c2aa eaac |
daa/a/a B2aa faaF | GGde efed efge |
gaa/a/a d2aa faad | eaa/a/a c2aa eaaf |
ggfd B2ga gdBd | efed ABde cd2e ||
